!!!!SEGMENT: pl-cz--iii-453--001-005_maader-ludwik--rorate-caeli-laskis-pelna-panskiej.krn
!!!cenid: 17xx:984
!!!COM: Maader, Ludwik
!!!COM-rismid: pe30020328
!!!CDT: <1794->1798
!!!CNT:
!!!OPR: Rorate caeli
!!!OTL: Łaskiś pełna pańskiej
!!!OMV: 005
!!!PDT: 1784
!!!AGN: Sacred
!!!SMS-siglum: PL-CZ
!!!SMS-shelfmark: III-453
!!!SMS-shelfwork: 001-005 M
!!!SMS-variant:
!!!SMS-altvar:
!!!NIFC-rismid: 300000768
!!!URL-scan: http://repozytorium.nifc.pl/skany/pl-cz-nut--iii-453
!!!ONB-nifc: UWAGA: części Rorate caeli: Rorate, Mittit ad virginem, Zdrowaś bądź Maria, Super bientium, Łaskiś pełna pańskiej, Qui nobis tribuat, Amen
!!!AIN: 1 alto 1 bass 2 oboe 1 organ 1 soprn 1 tenor 1 timpa 2 tromb 2 violn
!!!key: G
**kern	**fba	**dynam	**kern	**kern	**kern	**text	**kern	**text	**kern	**text	**kern	**text	**kern	**kern	**kern	**kern	**kern
*	*	*	*group4	*group4	*group3	*	*group3	*	*group3	*	*group3	*	*	*group2	*group2	*group1	*group1
*part12	*part12	*part12	*part11	*part10	*part9	*part9	*part8	*part8	*part7	*part7	*part6	*part6	*part5	*part4	*part3	*part2	*part1
*staff12	*	*	*staff11	*staff10	*staff9	*staff9	*staff8	*staff8	*staff7	*staff7	*staff6	*staff6	*staff5	*staff4	*staff3	*staff2	*staff1
*I"Organo.	*	*	*I"Violino Secondo	*I"Violino Primo.	*I"Baſso.	*	*I"Tenore	*	*I"Alto.	*	*I"Canto.	*	*I"Tympano in D.A.	*I"Clarino IIdo ex D#.	*I"Clarino Imo. ex D.#	*I"Oboe Secondo	*I"Oboe Imo.
*I'org	*	*	*I'vl 2	*I'vl 1	*I'B	*	*I'T	*	*I'A	*	*I'S	*	*I'timp	*I'clno 2 in E|b	*I'clno 1 in E|b	*I'ob 2	*I'ob 1
*Iorgan	*	*	*Ivioln	*Ivioln	*Ibass	*	*Itenor	*	*Ialto	*	*Isoprn	*	*Itimpa	*Itromb	*Itromb	*Ioboe	*Ioboe
*ICklav	*	*	*ICstr	*ICstr	*ICvox	*	*ICvox	*	*ICvox	*	*ICvox	*	*ICidio	*ICbras	*ICbras	*ICww	*ICww
*IGcont	*	*	*	*	*IGcoro	*	*IGcoro	*	*IGcoro	*	*IGcoro	*	*	*	*	*	*
*clefF4	*	*	*	*	*clefF4	*	*clefC4	*	*clefC3	*	*clefC1	*	*	*	*	*clefG2	*clefG2
*k[f#]	*	*	*	*	*k[f#]	*	*k[f#]	*	*k[f#]	*	*k[f#]	*	*	*	*	*k[f#]	*k[f#]
*G:	*	*	*	*	*G:	*	*G:	*	*G:	*	*G:	*	*	*	*	*G:	*G:
*M2/4	*	*	*	*	*M2/4	*	*M2/4	*	*M2/4	*	*M2/4	*	*	*	*	*M2/4	*M2/4
!LO:TX:a:i:t=Zdrowas Da Capo.	!	!	!LO:TX:a:t=Zdrowas Tacet	!LO:TX:a:t=Zdrowas&colon; Tacet	!LO:TX:t=P:problem=brak pauzy 8r	!	!LO:TX:t=P:problem=brak pauzy 8r	!	!LO:TX:t=P:problem=brak pauzy 8r	!	!LO:TX:t=P:problem=brak pauzy 8r	!	!LO:TX:a:t=P:problem=brak części w źródle	!LO:TX:a:t=P:problem=brak części w źródle	!LO:TX:t=P:problem=brak części w źródle	!LO:TX:t=P:problem=brak pauzy 8r	!LO:TX:a:t=Zdrowaś
8ryy	.	.	8ryy	8ryy	8ryy	.	8ryy	.	8ryy	.	8ryy	.	8ryy	8ryy	8ryy	8ryy	8r
=1	=1	=1	=1	=1	=1	=1	=1	=1	=1	=1	=1	=1	=1	=1	=1	=1	=1
*	*	*	*	*	*	*	*8va	*	*	*	*	*	*	*	*	*	*
!LO:TX:a:i:t=Solo	!	!LO:DY:t=piano.	!	!	!	!	!	!	!	!	!	!	!	!	!	!	!
4G\yy	.	p	2ryy	2ryy	4G\	Ła-	4dd 4d/	Ła-	4B/	Ła-	4g\	Ła-	2ryy	2ryy	2ryy	0r	0r
4ryy	.	.	.	.	8D\L	-ski	4dd 4d/	-ski	8f#\L	-ski	8a\L	-skis	.	.	.	.	.
.	.	.	.	.	8G\J	.	.	.	8g\J	.	8b\J	.	.	.	.	.	.
=2	=2	=2	=2	=2	=2	=2	=2	=2	=2	=2	=2	=2	=2	=2	=2	=2	=2
4D\yy	.	.	2ryy	2ryy	4F#\	spe-	4d/	spe-	4a\	spe-	4cc\	pe-	2ryy	2ryy	2ryy	.	.
4ryy	.	.	.	.	4D\	-łna	4d/	-łna	4f#\	-łna	4a\	-łna	.	.	.	.	.
=3	=3	=3	=3	=3	=3	=3	=3	=3	=3	=3	=3	=3	=3	=3	=3	=3	=3
8G\yy	.	.	2ryy	2ryy	4G\	Pan-	4d/	Pan-	8g\L	Pa-	8b\L	Pans-	2ryy	2ryy	2ryy	.	.
8ryy	.	.	.	.	.	.	.	.	8b\J	.	8dd\J	.	.	.	.	.	.
8c\Lyy	.	.	.	.	8c\L	.	8g/L	.	8a\L	.	8cc\L	.	.	.	.	.	.
8c#X\Jyy	.	.	.	.	8c#X\J	.	8e/J	.	8g\J	.	8b\J	.	.	.	.	.	.
=4	=4	=4	=4	=4	=4	=4	=4	=4	=4	=4	=4	=4	=4	=4	=4	=4	=4
4d\yy	.	.	2ryy	2ryy	4d\	-skiey	2d/	-skiey	8g\L	-skiey	8b\L	.	2ryy	2ryy	2ryy	.	.
.	.	.	.	.	.	.	.	.	8f#\J	.	8a\J	.	.	.	.	.	.
4D/yy	.	.	.	.	4D/	.	.	.	4f#\	.	4a\	-skiey	.	.	.	.	.
=5	=5	=5	=5	=5	=5	=5	=5	=5	=5	=5	=5	=5	=5	=5	=5	=5	=5
4G\yy	.	.	2ryy	2ryy	4G\	Czy-	4d/	czy-	4B/	Czy-	4g\	Czy-	2ryy	2ryy	2ryy	1r	1r
4ryy	.	.	.	.	8D\L	-sto-	4d/	-sto-	8f#\L	-sto-	8a\L	-sto-	.	.	.	.	.
.	.	.	.	.	8G\J	.	.	.	8g\J	.	8b\J	.	.	.	.	.	.
=6	=6	=6	=6	=6	=6	=6	=6	=6	=6	=6	=6	=6	=6	=6	=6	=6	=6
4D\yy	.	.	2ryy	2ryy	4F#\	-sci	4d/	-sci	4a\	-sci	4cc\	-sci	2ryy	2ryy	2ryy	.	.
4ryy	.	.	.	.	4D\	An-	4d/	A-	4f#\	An-	4a\	An-	.	.	.	.	.
=7	=7	=7	=7	=7	=7	=7	=7	=7	=7	=7	=7	=7	=7	=7	=7	=7	=7
!LO:TX:t=P:problem=mixed beam	!	!	!	!	!	!	!	!	!	!	!	!	!	!	!	!	!
8G\Lyy	.	.	2ryy	2ryy	4G\	-giels-	2d/	-niel-	4g\	-giel-	4b\	-giels-	2ryy	2ryy	2ryy	2r	2r
8GG/yy	.	.	.	.	.	.	.	.	.	.	.	.	.	.	.	.	.
8D\yy	.	.	.	.	4D\	.	.	.	4d\	.	4a\	.	.	.	.	.	.
8D\Jyy	.	.	.	.	.	.	.	.	.	.	.	.	.	.	.	.	.
=8	=8	=8	=8	=8	=8	=8	=8	=8	=8	=8	=8	=8	=8	=8	=8	=8	=8
!	!	!	!	!	!	!	!	!	!	!	!	!	!	!	!	!LO:TX:a:i:t=Solo	!
!	!	!	!	!	!	!	!	!	!	!	!	!	!	!	!	!LO:TX:b:t=Zdrowas:rj	!LO:TX:a:i:t=Solo.:rj
8G\Lyy	.	.	2ryy	2ryy	4GG/	-kiey	4d/	-skiey	4B/	-skiey	4g\	-kiey	2ryy	2ryy	2ryy	4r	4r
16D\Lyy	.	.	.	.	.	.	.	.	.	.	.	.	.	.	.	.	.
16BB\JJyy	.	.	.	.	.	.	.	.	.	.	.	.	.	.	.	.	.
!LO:TX:t=P:problem=mixed beam	!	!	!	!	!	!	!	!	!	!	!	!	!	!	!	!	!
8GG/Lyy	.	.	.	.	4r	.	4r	.	4r	.	4r	.	.	.	.	8r	8r
8G\Jyy	.	.	.	.	.	.	.	.	.	.	.	.	.	.	.	8gg\	8bb\
*	*	*	*	*	*	*	*X8va	*	*	*	*	*	*	*	*	*	*
!	!	!	!	!	!LO:LB:g=original	!	!	!	!	!	!LO:LB:g=original	!	!	!	!	!	!
=9	=9	=9	=9	=9	=9	=9	=9	=9	=9	=9	=9	=9	=9	=9	=9	=9	=9
!	!	!	!	!	!	!	!LO:TX:a:t=loco.	!	!	!	!	!	!	!	!	!	!
8F#\Lyy	.	.	2ryy	2ryy	4D\	Czy-	4d\	Czy-	4f#\	Czy-	4a\	Czy-	2ryy	2ryy	2ryy	4ff#\	4aa\
8D\yy	.	.	.	.	.	.	.	.	.	.	.	.	.	.	.	.	.
8G\yy	.	.	.	.	4D\	-sto-	4d\	-sto-	4g\	-sto-	4b\	-sto-	.	.	.	4gg\	4bb\
8D\Jyy	.	.	.	.	.	.	.	.	.	.	.	.	.	.	.	.	.
!	!	!	!	!	!	!	!	!	!LO:LB:g=original	!	!	!	!	!	!	!	!
=10	=10	=10	=10	=10	=10	=10	=10	=10	=10	=10	=10	=10	=10	=10	=10	=10	=10
8F#\Lyy	.	.	2ryy	2ryy	4.D\	-sci	4d\	-sci	4.f#\	-sci	4.a\	-sci	2ryy	2ryy	2ryy	4ff#\	4aa\
8D\yy	.	.	.	.	.	.	.	.	.	.	.	.	.	.	.	.	.
8F#\yy	.	.	.	.	.	.	4d\	An-	.	.	.	.	.	.	.	8r	8r
8G\Jyy	.	.	.	.	8G\	An-	.	.	8g\	An-	8b\	An-	.	.	.	8gg\	8bb\
!	!	!	!	!	!	!	!LO:LB:g=original	!	!	!	!	!	!	!	!	!	!
=11	=11	=11	=11	=11	=11	=11	=11	=11	=11	=11	=11	=11	=11	=11	=11	=11	=11
*	*	*	*	*	*	*	*2\right	*	*	*	*	*	*	*	*	*	*
4A\yy	8 6	.	2ryy	2ryy	4A\	-giels-	2A\	-iel-	8f#\L	-giel-	8a\L	-giel-	2ryy	2ryy	2ryy	8ff#\L	8aa\L
.	7 5	.	.	.	.	.	.	.	8e\J	.	8g\J	.	.	.	.	8ee\	8gg\
4AA/yy	6 4	.	.	.	4AA/	.	.	.	8d\L	.	8f#/L	.	.	.	.	8dd\	8ff#\
.	5 #	.	.	.	.	.	.	.	8c#X\J	.	8e/J	.	.	.	.	8cc#X\J	8ee\J
!LO:LB:g=original	!	!	!	!	!	!	!	!	!	!	!	!	!	!	!	!	!
=12	=12	=12	=12	=12	=12	=12	=12	=12	=12	=12	=12	=12	=12	=12	=12	=12	=12
!LO:TX:t=P:problem=mixed beam	!	!	!	!	!	!	!	!	!	!	!	!	!	!	!	!	!
8d\Lyy	.	.	2ryy	2ryy	4D\	-kiey	4A\	-skiey	4d\	-skiey	4f#/	-skiey	2ryy	2ryy	2ryy	8dd\L	4dd\
8D/Jyy	.	.	.	.	.	.	.	.	.	.	.	.	.	.	.	8f#/J	.
4ryy	.	.	.	.	4r	.	4r	.	4r	.	4r	.	.	.	.	8r	8r
.	.	.	.	.	.	.	.	.	.	.	.	.	.	.	.	8gg\	8bb\
=13	=13	=13	=13	=13	=13	=13	=13	=13	=13	=13	=13	=13	=13	=13	=13	=13	=13
*	*	*	*	*	*2\right	*	*	*	*	*	*	*	*	*	*	*	*
8F#\Lyy	.	.	2ryy	2ryy	2D\	Pan-	4d\	Pan-	4f#\	Pan-	4a\	Pan-	2ryy	2ryy	2ryy	4ff#\	4aa\
8D\yy	.	.	.	.	.	.	.	.	.	.	.	.	.	.	.	.	.
8G\yy	.	.	.	.	.	.	8d\	-naś	4g\	-nas	4b\	-nas	.	.	.	4gg\	4bb\
8D\Jyy	.	.	.	.	.	.	8d\	nad	.	.	.	.	.	.	.	.	.
=14	=14	=14	=14	=14	=14	=14	=14	=14	=14	=14	=14	=14	=14	=14	=14	=14	=14
8F#\Lyy	.	.	2ryy	2ryy	4.D\	-naś	2d\	Pan-	4.f#\	nad	4.a\	nad	2ryy	2ryy	2ryy	4ff#\	4aa\
8D\yy	.	.	.	.	.	.	.	.	.	.	.	.	.	.	.	.	.
8G\yy	.	.	.	.	.	.	.	.	.	.	.	.	.	.	.	8r	8r
8D\Jyy	.	.	.	.	8G\	nad	.	.	8g\	Pan-	8b\	.	.	.	.	8gg\	8bb\
!	!	!	!	!	!	!	!	!	!	!	!	!	!	!	!	!	!LO:LB:g=original
=15	=15	=15	=15	=15	=15	=15	=15	=15	=15	=15	=15	=15	=15	=15	=15	=15	=15
4A\yy	6 4	.	2ryy	2ryy	4A\	Pan-	2A\	-na-	4f#\	-na-	8a\L	Pan-	2ryy	2ryy	2ryy	4ff#\	8aa\L
.	.	.	.	.	.	.	.	.	.	.	8dd\J	.	.	.	.	.	8ddd\J
4AA/yy	5 #	.	.	.	4AA/	-na-	.	.	4e\	.	8dd\L	-na-	.	.	.	4ee\	8ddd\L
.	.	.	.	.	.	.	.	.	.	.	8cc#X\J	.	.	.	.	.	8ccc#X\J
!	!	!	!	!	!	!	!	!	!	!	!	!	!	!	!	!LO:LB:g=original	!
=16	=16	=16	=16	=16	=16	=16	=16	=16	=16	=16	=16	=16	=16	=16	=16	=16	=16
!LO:TX:t=P:problem=mixed beam	!	!	!	!	!	!	!	!	!	!	!	!	!	!	!	!	!
8D\Lyy	.	.	2ryy	2ryy	4D\	-mi	4A\	-mi	4f#\	-mi	4dd\	-mi	2ryy	2ryy	2ryy	4ff#\	4ddd\
8AA/yy	.	.	.	.	.	.	.	.	.	.	.	.	.	.	.	.	.
8DD/Jyy	.	.	.	.	4r	.	4r	.	4r	.	4r	.	.	.	.	4r	4r
8ryy	.	.	.	.	.	.	.	.	.	.	.	.	.	.	.	.	.
=17	=17	=17	=17	=17	=17	=17	=17	=17	=17	=17	=17	=17	=17	=17	=17	=17	=17
*	*	*	*	*	*	*	*8va	*	*	*	*	*	*	*	*	*	*
4G\yy	.	.	2ryy	2ryy	4G\	Swię-	4d/	Swię-	4B/	Swię-	4g\	Swię-	2ryy	2ryy	2ryy	0r	0r
4ryy	.	.	.	.	8D\	-ta	8d/	-ta	8f#\	-ta	8a\	-ta	.	.	.	.	.
.	.	.	.	.	8G\	nad	8d/	nad	8g\	nad	8b\	nad	.	.	.	.	.
!	!	!	!	!	!	!	!	!	!	!	!LO:LB:g=original	!	!	!	!	!	!
=18	=18	=18	=18	=18	=18	=18	=18	=18	=18	=18	=18	=18	=18	=18	=18	=18	=18
4D\yy	.	.	2ryy	2ryy	8F#\	Swię-	8d/	Swię-	8a\	Swię-	8cc\	Swię-	2ryy	2ryy	2ryy	.	.
.	.	.	.	.	8F#\	-ta-	8d/	-ta-	8a\	-ta-	8cc\	-te-	.	.	.	.	.
4ryy	.	.	.	.	4D\	-mi	4d/	-mi	4f#\	-mi	4a\	-mi	.	.	.	.	.
!	!	!	!	!	!LO:LB:g=original	!	!LO:LB:g=original	!	!LO:LB:g=original	!	!	!	!	!	!	!	!
=19	=19	=19	=19	=19	=19	=19	=19	=19	=19	=19	=19	=19	=19	=19	=19	=19	=19
!	!	!	!	!	!	!	!LO:TX:t=P:problem=8 skreślonych taktów	!	!	!	!	!	!	!	!	!	!
8G\yy	.	.	2ryy	2ryy	8G\	O!	8d/	O!	8g\	O!	8b\	O!	2ryy	2ryy	2ryy	.	.
8ryy	.	.	.	.	8G\	Nay-	8g/	Nay-	8b\	Nay-	8dd\	Nay-	.	.	.	.	.
8c\Lyy	.	.	.	.	8c\	-swię-	8e/	-swię-	8a\	-swię-	8cc\	-swię-	.	.	.	.	.
8c#X\Jyy	.	.	.	.	16c#X\	-tsza	16e/	-tsza	16g\	-tsza	16b\	-tsza	.	.	.	.	.
.	.	.	.	.	16c#\	Ma-	16e/	Ma-	16g\	Ma-	16b\	Ma-	.	.	.	.	.
=20	=20	=20	=20	=20	=20	=20	=20	=20	=20	=20	=20	=20	=20	=20	=20	=20	=20
4d\yy	.	.	2ryy	2ryy	4d\	-ri-	4d/	-ri-	8g\L	-ri-	8b\L	-ri-	2ryy	2ryy	2ryy	.	.
.	.	.	.	.	.	.	.	.	8f#\J	.	8a\J	.	.	.	.	.	.
4D/yy	.	.	.	.	4D/	-a	4d/	-a	4f#\	-a	4a\	-a	.	.	.	.	.
=21	=21	=21	=21	=21	=21	=21	=21	=21	=21	=21	=21	=21	=21	=21	=21	=21	=21
4G\yy	.	.	2ryy	2ryy	4G\	modl	4d/	modl	4B/	modl	(4g\	modl	2ryy	2ryy	2ryy	1r	1r
4ryy	.	.	.	.	8D\L	.	8d/	.	8f#\	.	8a\)	.	.	.	.	.	.
.	.	.	.	.	8G\J	się	8d/	sie	8g\	się	8b\	sie	.	.	.	.	.
=22	=22	=22	=22	=22	=22	=22	=22	=22	=22	=22	=22	=22	=22	=22	=22	=22	=22
4D\yy	.	.	2ryy	2ryy	4F#\	dzis	4d/	dzis	4a\	dzis	4cc\	dzis	2ryy	2ryy	2ryy	.	.
4ryy	.	.	.	.	4D\	za	4d/	za	4f#\	za	4a\	za	.	.	.	.	.
=23	=23	=23	=23	=23	=23	=23	=23	=23	=23	=23	=23	=23	=23	=23	=23	=23	=23
!	!	!	!	!	!	!	!	!	!	!	!	!	!	!	!	!LO:TX:t=P:problem=partia kończy się w takcie nr 23	!LO:TX:t=P:problem=partia kończy się w takcie nr 23
4G\yy	.	.	2ryy	2ryy	4G\	na-	2d/	na-	4g\	na-	4b\	na-	2ryy	2ryy	2ryy	2r	2r
4D\yy	.	.	.	.	4D\	.	.	.	4d\	.	4a\	.	.	.	.	.	.
=24	=24	=24	=24	=24	=24	=24	=24	=24	=24	=24	=24	=24	=24	=24	=24	=24	=24
8G\Lyy	.	.	2ryy	2ryy	4GG/	-mi.	4d/	-mi.	4B/	-mi.	4g\	-mi.	2ryy	2ryy	2ryy	2ryy	2ryy
8D\Jyy	.	.	.	.	.	.	.	.	.	.	.	.	.	.	.	.	.
*	*	*	*	*	*	*	*X8va	*	*	*	*	*	*	*	*	*	*
4GG/yy	.	.	.	.	4r	.	4r	.	4r	.	4r	.	.	.	.	.	.
==	==	==	==	==	==	==	==	==	==	==	==	==	==	==	==	==	==
*-	*-	*-	*-	*-	*-	*-	*-	*-	*-	*-	*-	*-	*-	*-	*-	*-	*-
!!!system-decoration: [(g1)][(g2)]<s5>[(g3)][(g4)]<s12>
!!!ENC:
!!!END:
!!!ENC: Andrzej Kubiczek
!!!END: 2022-01-26
